src/assets/img/cloud_arrow_right.svg

<svg fill="none" height="205" viewBox="0 0 148 205" width="148" xmlns="http://www.w3.org/2000/svg"><path clip-rule="evenodd" d="m34.9798 18.2979c1.6193 1.0556 2.0762 3.2241 1.0206 4.8434-.3598.5519-1.0125 1.5284-1.8778 2.8229-2.4229 3.6249-6.512 9.7426-10.5003 16.009-2.6932 4.2314-5.2851 8.4459-7.212 11.8836-.131.2337-.2584.4628-.382.6873.6694-.3171 1.4616-.6813 2.3712-1.0814 3.1785-1.3984 7.7956-3.2386 13.6179-5.043 11.6381-3.6066 28.1384-7.0842 47.6141-6.5718 19.773.5202 34.8805 7.1332 45.0445 13.629 5.078 3.2457 8.929 6.4655 11.525 8.8917 1.299 1.2137 2.287 2.2312 2.959 2.9573.238.2561 1.171 1.3224 1.074 1.2136 1.224 1.4963 1.003 3.7013-.493 4.9251-1.626 1.3293-3.806.7921-5.092-.6885-.132-.152-.34-.3868-.624-.693-.567-.6126-1.436-1.5098-2.603-2.6-2.335-2.1817-5.851-5.1264-10.516-8.1079-9.323-5.9583-23.2081-12.0496-41.4586-12.5297-18.5477-.488-34.2747 2.8258-45.3579 6.2605-5.5385 1.7164-9.9056 3.4594-12.8712 4.764-1.7109.7527-4.2183 1.631-5.5314 2.5081.5968.5789 1.3001 1.2058 2.1068 1.8751 3.2426 2.6902 7.6938 5.6892 12.2751 8.529 4.5573 2.8251 9.1405 5.4297 12.5923 7.3318 1.7236.9498 3.1602 1.7217 4.1639 2.2551.5017.2667.895.4736 1.1616.6132 1.7766.9303 2.898 3.0012 1.9035 4.9255-1.0207 1.9749-3.3473 2.2202-5.1508 1.2757-.2784-.1458-.6844-.3594-1.1995-.6332-1.0302-.5475-2.4981-1.3363-4.2571-2.3056-3.5136-1.9361-8.2084-4.6034-12.902-7.5128-4.6697-2.8947-9.4423-6.0928-13.0566-9.0914-1.7976-1.4914-3.42574-3.0287-4.61921-4.5379-1.07455-1.3587-2.33901-3.3568-2.20482-5.6458.07905-1.3482.71158-2.9005 1.27633-4.1415.64295-1.4129 1.51892-3.0815 2.5277-4.8812 2.0225-3.6083 4.6965-7.9517 7.4128-12.2195 4.043-6.3522 8.3035-12.7264 10.7045-16.3187.8097-1.2112 1.4079-2.1062 1.715-2.5774 1.0556-1.6193 3.2241-2.0762 4.8434-1.0206z" fill="#0b0c18" fill-rule="evenodd"/></svg>

<svg width="148" height="205" viewBox="0 0 148 205" fill="none" xmlns="http://www.w3.org/2000/svg">
<path fill-rule="evenodd" clip-rule="evenodd" d="M34.9798 18.2979C36.5991 19.3535 37.056 21.522 36.0004 23.1413C35.6406 23.6932 34.9879 24.6697 34.1226 25.9642C31.6997 29.5891 27.6106 35.7068 23.6223 41.9732C20.9291 46.2046 18.3372 50.4191 16.4103 53.8568C16.2793 54.0905 16.1519 54.3196 16.0283 54.5441C16.6977 54.227 17.4899 53.8628 18.3995 53.4627C21.578 52.0643 26.1951 50.2241 32.0174 48.4197C43.6555 44.8131 60.1558 41.3355 79.6315 41.8479C99.4045 42.3681 114.512 48.9811 124.676 55.4769C129.754 58.7226 133.605 61.9424 136.201 64.3686C137.5 65.5823 138.488 66.5998 139.16 67.3259C139.398 67.582 140.331 68.6483 140.234 68.5395C141.458 70.0358 141.237 72.2408 139.741 73.4646C138.115 74.7939 135.935 74.2567 134.649 72.7761C134.517 72.6241 134.309 72.3893 134.025 72.0831C133.458 71.4705 132.589 70.5733 131.422 69.4831C129.087 67.3014 125.571 64.3567 120.906 61.3752C111.583 55.4169 97.6979 49.3256 79.4474 48.8455C60.8997 48.3575 45.1727 51.6713 34.0895 55.106C28.551 56.8224 24.1839 58.5654 21.2183 59.87C19.5074 60.6227 17 61.501 15.6869 62.3781C16.2837 62.957 16.987 63.5839 17.7937 64.2532C21.0363 66.9434 25.4875 69.9424 30.0688 72.7822C34.6261 75.6073 39.2093 78.2119 42.6611 80.114C44.3847 81.0638 45.8213 81.8357 46.825 82.3691C47.3267 82.6358 47.72 82.8427 47.9866 82.9823C49.7632 83.9126 50.8846 85.9835 49.8901 87.9078C48.8694 89.8827 46.5428 90.128 44.7393 89.1835C44.4609 89.0377 44.0549 88.8241 43.5398 88.5503C42.5096 88.0028 41.0417 87.214 39.2827 86.2447C35.7691 84.3086 31.0743 81.6413 26.3807 78.7319C21.711 75.8372 16.9384 72.6391 13.3241 69.6405C11.5265 68.1491 9.89836 66.6118 8.70489 65.1026C7.63034 63.7439 6.36588 61.7458 6.50007 59.4568C6.57912 58.1086 7.21165 56.5563 7.7764 55.3153C8.41935 53.9024 9.29532 52.2338 10.3041 50.4341C12.3266 46.8258 15.0006 42.4824 17.7169 38.2146C21.7599 31.8624 26.0204 25.4882 28.4214 21.8959C29.2311 20.6847 29.8293 19.7897 30.1364 19.3185C31.192 17.6992 33.3605 17.2423 34.9798 18.2979Z" fill="#0B0C18"/>
</svg>
